!!!COM: Haydn, Franz Joseph
!!!OTL: String Quartet in C Major
!!!OPS: Opus 33
!!!ONM: No. 3
!!!OMD: Scherzo: Allegretto
!!!OMV: 2
!!!SCT: H III:39
!!!SCA: Thematisch-bibliographisches Werkevererzeichnis (A. van Hoboken)
!!!YOR: Richault Edition, volume 7
!!!ENC: Frances Bennion
!!!CDT: 1732/3/31/-1809/5/31/
!!!CNT: Oesterreich
!!!YEC: Copyright (c) 1994, 2000 Center for Computer Assisted Research in the Humanities
!!!YEM: Rights to all derivative editions reserved.
!!!YEM: Refer to licensing agreement for further details.
!!!YEN: United States of America
**kern	**kern	**kern	**kern
*k[]	*k[]	*k[]	*k[]
*C:	*C:	*C:	*C:
*clefF4	*clefC3	*clefF	*clefF
*M3/4	*M3/4	*M3/4	*M3/4
2r	2r	2r	2r
4EE	4G	4c	4c
=1	=1	=1	=1
2EE	2G	2c	2c
4FF	4A	4A	4d
=2	=2	=2	=2
4EE	4G	2.G	4c
4DD	4F	.	4B
4CC	4E	.	4c
=3	=3	=3	=3
4BB	2.G	4B	4d
4AA	.	4c	4e
4GG	.	4d	4f
=4	=4	=4	=4
2C	2G	4d	4f
.	.	4c	4e
4FF	4A	4A	4d
=5	=5	=5	=5
2FF	2D	2A	2d
4GG	4B-	4B-	4e
=6	=6	=6	=6
4FF	4A	2.A	4d
4EE	4G	.	4c#
4DD	4F	.	4d
=7	=7	=7	=7
2CC#	4E	4A	4e
.	4A	4e	4g
4DD	4A	4d	4f#
=8	=8	=8	=8
2BB	2.G	2d	4d
.	.	.	4f
4C	.	4c	4e
=9	=9	=9	=9
4FF	4F	4A	4d
4GG	4E	4G	4c
4GG	4D	4B	4B
=10	=10	=10	=10
4CC	4C	4c	4c
4r	4r	4r	4r
4EE	4E	4G	4g
=11	=11	=11	=11
2EE	2E	2G	2g
4DD	4G	4B	4f
=12	=12	=12	=12
4CC	2G	4c	4e
4GG	.	4B	4d
4FF	4F	4A	4a
=13	=13	=13	=13
2FF	2F	2A	2a
4EE	4A	4c#	4g
=14	=14	=14	=14
4DD	4A	4d	4f
4AA	4A	4c#	4e
4BB-	4F	4d	4d
=15	=15	=15	=15
4BB-	4F	4B-	4d
4BB-	4F	4B-	4d
4BB-	4F	4B-	4d
=16	=16	=16	=16
4GG	4G	4B-	4e
4FF	4F	4A	4f
4EE	4E	4G	4g
=17	=17	=17	=17
2.AA	2D	2A	4f
.	.	.	4a
.	4E	4c#	4c#
=18	=18	=18	=18
4DD	4D	4d	4d
4r	4r	4r	4r
4D	4A	4d	4f
=19	=19	=19	=19
2D	2A	2d	2f
4C	4A	4e-	4f#
=20	=20	=20	=20
4C	4A	4e-	4f#
4BB	4G	4d	4g
4F	4G	4B	4d
=21	=21	=21	=21
2F	2G	2B	2d
4E	[4G	4c#	4e
=22	=22	=22	=22
4E	4G]	4c#	4e
4D	4F	4d	4f
4G	[4G	4B	4d
=23	=23	=23	=23
4C	4G]	4c	4e
4FF	4A	4A	4f
4FF	4F	4A	4d
=24	=24	=24	=24
2GG	2D	2G	2B
4EE	4G	4c	4c
=25	=25	=25	=25
2EE	2G	2c	2c
4FF	4A	4A	4d
=26	=26	=26	=26
4EE	4G	2.G	4c
4DD	4F	.	4B
4CC	4E	.	4c
=27	=27	=27	=27
4BB	[2.G	4B	4d
4AA	.	4c	4e
4GG	.	4d	4f
=28	=28	=28	=28
2C	2G]	4d	4f
.	.	4c	4e
4FF	4A	4A	4d
=29	=29	=29	=29
2FF	2D	2A	2d
4GG	4B-	4B-	4e
=30	=30	=30	=30
4FF	4A	2.A	4d
4EE	4G	.	4c#
4DD	4F	.	4d
=31	=31	=31	=31
2CC#	4E	4A	4e
.	4A	4e	4g
4DD	4A	4d	4f#
=32	=32	=32	=32
2BB	2.G	2d	4d
.	.	.	4f
4C	.	4c	4e
=33	=33	=33	=33
4FF	4F	4A	4d
4GG	4E	4G	4c
4GG	4D	4B	4B
=34	=34	=34	=34
4CC	4C	4c	4c
2r	2r	2r	4r
.	.	.	4gg
=35	=35	=35	=35
2.r	2.r	4ee	4gg
.	.	4cc	4r
.	.	4ff	4aa
=36	=36	=36	=36
2.r	2.r	4ee	4gg
.	.	4cc	4r
.	.	4g	4ff
=37	=37	=37	=37
2.r	2.r	4cc	8ee
.	.	.	8gg
.	.	4c	8ee
.	.	.	8gg
.	.	4g	8ff
.	.	.	8dd
=38	=38	=38	=38
2.r	2.r	8c	4cc
.	.	8e	.
.	.	8g	4r
.	.	8cc	.
.	.	8b	4dd
.	.	8g	.
=39	=39	=39	=39
2.r	2.r	4cc	8ee
.	.	.	8gg
.	.	4cc	8ee
.	.	.	8gg
.	.	4a	8ff#
.	.	.	8aa
=40	=40	=40	=40
2.r	2.r	8b	4gg
.	.	8dd	.
.	.	8b	4r
.	.	8g	.
.	.	8f#	4aa
.	.	8d	.
=41	=41	=41	=41
2.r	2.r	4g	8bb
.	.	.	8ccc
.	.	4b	8ddd
.	.	.	8bb
.	.	4dd	8ccc
.	.	.	8aa
=42	=42	=42	=42
2.r	2.r	4g	4gg
.	.	4G	4r
.	.	8ee	4gg
.	.	8g	.
=43	=43	=43	=43
2.r	2.r	8dd	4ff
.	.	8g	.
.	.	8dd	4r
.	.	8g	.
.	.	8cc	4ee
.	.	8g	.
=44	=44	=44	=44
2.r	2.r	8b	4dd
.	.	8g	.
.	.	8b	4r
.	.	8g	.
.	.	8ee	4gg
.	.	8g	.
=45	=45	=45	=45
2.r	2.r	8dd	4ff
.	.	8g	.
.	.	8dd	4r
.	.	8g	.
.	.	8cc	4ee
.	.	8g	.
=46	=46	=46	=46
2.r	2.r	8b	8dd
.	.	8g	8b
.	.	8a	8cc
.	.	8b	8dd
.	.	8cc	8ee
.	.	8dd	8ff
=47	=47	=47	=47
2.r	2.r	8ee	4gg
.	.	8cc	.
.	.	8ee	4r
.	.	8cc	.
.	.	8ff	4aa
.	.	8cc	.
=48	=48	=48	=48
2.r	2.r	8ee	4gg
.	.	8cc	.
.	.	8ee	4r
.	.	8cc	.
.	.	8dd	4ff
.	.	8g	.
=49	=49	=49	=49
2.r	2.r	4cc	8ee
.	.	.	8gg
.	.	4ee	8ccc
.	.	.	8eee
.	.	4gg	8ddd
.	.	.	8bb
=50	=50	=50	=50
2.r	2.r	4cc	4ccc
.	.	2r	2r
==	==	==	==
*-	*-	*-	*-
!!!RWG1: This file contains only pitch and duration data.
!!!RWG2: Transposing instruments are not transposed.
!!!RWG3: Spines may have incompatible meters.
!!!RWG4: Durations of rests and tied notes may be interpreted.
!!!RWG: Key is interpreted using the Humdrum key tool.
!!!GTL: 6 Quators ("Jungfernquartette")
!!!OPT: The Bird
!!!AFT: stage1
!!!END: 1997/04/15
!!!KEY: 1249384729
!!!EMD: Converted from MuseData to Humdrum Dec 16, 2000, by Andreas Kornstaedt using muse2kern.
!!!EMD: Manual editing by Craig Sapp, Nov 2001
